src/main/resources/icons/AllIcons/debugger/db_muted_disabled_method_breakpoint_dark.svg

<svg xmlns="http://www.w3.org/2000/svg" width="12" height="12" viewBox="0 0 12 12"><rect id="frame" width="12" height="12" fill="none"/><path fill="#AFB1B3" fill-rule="evenodd" d="M6 0l6 6-6 6-6-6 6-6zm0 2L2 6l4 4 4-4-4-4z"/></svg>

<!-- Copyright 2000-2021 JetBrains s.r.o. Use of this source code is governed by the Apache 2.0 license that can be found in the LICENSE file. -->
<svg xmlns="http://www.w3.org/2000/svg" width="12" height="12" viewBox="0 0 12 12">
  <path fill="#AFB1B3" fill-rule="evenodd" d="M6,-1.28667655e-14 L12,6 L6,12 L-1.33108547e-14,6 L6,-1.28667655e-14 Z M6,2 L2,6 L6,10 L10,6 L6,2 Z"/>
</svg>
